frontend/public/assets/material-icons/php_elephant_pink.svg

<svg xmlns="http://www.w3.org/2000/svg" viewBox="0 0 32 32"><path fill="#ec407a" d="M28 10a4 4 0 0 0-4-4h-6v6a6 6 0 0 1-6 6h-2v2h2v6h4v-6h8v6h4V16h2v-4a2 2 0 0 0-2-2"/><path fill="#ec407a" d="M12 4H8v2a6 6 0 0 0-6 6v6a2 2 0 0 0 2 2v2H2.5a.5.5 0 0 0-.5.5v3a.5.5 0 0 0 .5.5H6a2 2 0 0 0 2-2v-8h4a4 4 0 0 0 4-4V8a4 4 0 0 0-4-4M6 14H4v-2h2Z"/></svg>

<svg xmlns="http://www.w3.org/2000/svg" viewBox="0 0 32 32">
  <g>
    <path d="M28,10a4,4,0,0,0-4-4H18v6a6,6,0,0,1-6,6H10v2h2v6h4V20h8v6h4V16h2V12A2,2,0,0,0,28,10Z" style="fill: #ec407a"/>
    <path d="M12,4H8V6a6,6,0,0,0-6,6v6a2,2,0,0,0,2,2v2H2.5a.5.5,0,0,0-.5.5v3a.5.5,0,0,0,.5.5H6a2,2,0,0,0,2-2V16h4a4,4,0,0,0,4-4V8A4,4,0,0,0,12,4ZM6,14H4V12H6Z" style="fill: #ec407a"/>
  </g>
</svg>
